X: 11343
M: C
L: 1/8
K: Bb
|: gf |\
ecgf ecfe | dBed c2F2 | GABc de=ef | f=e_ec BBgf |\
ecgf ecfe | dBed c2f2 | =efga bgfe |[1 f2f2 f2 :|\
[2 f=efg f_e"^D.C."dc |]


